X: 3
T: Music For A Found Harmonium
R: reel
M: 4/4
L: 1/8
K: Amaj
AB|:cAdA cAAA|cAdA cAAA|cAdA cAAA|BAGA cAAA:||:BAGA BAGA|cAGA cAGA|dABA GAdA|1 cAAA A2 AA:|2 cAAA A2 A=c|||:gcBc {Bc}dcBc|1 gcBc BB2 c:|2 gcBc BB2 A|||fcAc dcAc|fcAc dcAc|fcBc dBBd|fcBc dBBd||^gdBd gddd|^gdBd gddd|^gdBd gddd|^gdBd gddd||:cAdA cAAA|cAdA cAAA|cAdA cAAA|BAGA cAAA:||:BAGA BAGA|cA=GA cAGA|dABA GABA|1 cAAA A2 AA:|2 cAAA A4||


Tune 346	Setting 27169

